X:1
T:Title
%%score 1 2 3 4
L:1/8
M:4/4
K:F
V:1 treble nm="Part_1"
V:2 treble nm="Part_2"
V:3 bass nm="Part_3"
V:4 bass nm="Part_4"
V:1
 ff/f/ =e>d d2 AB | c>B A>G G2 z2 | z8 | _ee/e/ d>c c2 GA | BA G>F F4 | z8 | z2 g>g _e2 e2 | %7
 z ccc _A2 AB | F4 _E4 | G>A BG d>c BA | B2 G2 z4 | z2 de f>f _ed | c2 d/c/d/_e/ c4 | B8 | z8 | %15
 z8 | z4 _ee/e/ d>c | BBdd c2 cB | A3 G Gdde | ff/f/ _e>d cccd | _ee/e/ d>c BBff | fdff fdff | %22
 ff/f/ _ed c4 | B8 | GGGG A2 AA | B2 B2 z4 | dcBA BAGF | GFED D2 ^C2 | D4 z2 AA | A2 A2 AAAA | %30
 B>B B2 z2 c2 | z2 A2 z2 FF | D2 D2 D2 ^C2 | D8 | z/ A/B/c/ d2 A>A A>d | A>A A2 AABc | dc _ed c4 | %37
 B4 FFGA | BB z d GGAB | cB cB A4 | G8 | z4 z2 gg | gg gf/g/ _ee ed/e/ | c2 c2 A2 A2 | %44
 z FGA B2 B2 | z Bcd _e2 e2 | c2 cB A3 B/c/ | AABA dd/d/ c>B | AA A>G ^F2 F2 | z4 z ABA | %50
 dd/d/ c>B A4 | G8 | BBBB B2 Bc | ddde ff_ed | _e2 ed d4 | c4 z4 | z8 | z2 A2 A2 Bc | d2 GA B2 A2 | %59
 G8 | dc/B/ cB/A/ B2 A2 | z4 gf/_e/ fe/d/ | _e2 dc c3 B | B4 z2 ff | f2 _ed d4 | c2 _ee eeee | %66
 d>d d>d B2 z c | G2 A/G/A/B/ G4 | F2 cc cc/c/ AA | d2 d2 z4 | z4 z d/c/ d/c/B/A/ | %71
 G2 G2 z g/f/ g/f/_e/d/ | cccc cc/c/ AA | dddd dd/d/ BB | _e2 e2 z e/d/ e/d/c/B/ | A2 B/A/B/c/ G4 | %76
 G8 |] %77
V:2
 dd/d/ d>^c d2 ^FG | AG G>^F G2 z2 | z8 | cc/c/ c>=B c2 EF | GF F>E F4 | z2 dd B2 B2 | %6
 z BBB G2 G2 | z _AAA _E2 EE | _E3 D E4 | z8 | G>A BG d>c BA | BGBc d>dcB | A2 B2 B2 A2 | B8 | z8 | %15
 z8 | z4 cc/c/ BA | GGBB A2 GG | G3 ^F GBBc | dd/d/ cB AAAB | cc/c/ BA GGdd | dBdd dBdd | %22
 dd/d/ cB B2 A2 | B8 | z8 | GGGG A2 AA | B2 B2 d>c BA | BA GF E4 | D4 z2 DD | D2 D2 DDDD | %30
 D>D D2 z2 G2 | z2 E2 z2 AA | B3 D E4 | D8 | z8 | z8 | z8 | z8 | z8 | z8 | z2 BB BB BA/B/ | %41
 G2 G2 z2 _ee | _ee ed/e/ cc cB/c/ | A2 A2 F2 F2 | z DEF G2 G2 | z GAB c2 c2 | A2 AG ^F3 G/A/ | %47
 ^F4 z ABA | dd/d/ c>B A2 A2 | z4 z ^FGF | BB/B/ AG G2 ^F2 | G8 | GGGG G2 GA | BBBc ddcB | %54
 c2 cc c2 =B2 | c4 z4 | z8 | z2 ^F2 F2 GA | B2 EG G3 ^F | G8 | z4 dc/B/ cB/A/ | %61
 B2 A2 _ed/c/ dc/B/ | c2 BB B3 A | B2 dd d2 c=B | =B2 c4 B2 | c2 cc cccc | B>B B>B G2 z F | %67
 E2 F2 F2 E2 | F2 AA AA/A/ FF | B2 B2 z4 | z c/B/ c/B/A/G/ F2 F2 | z4 z _e/d/ e/d/c/B/ | %72
 AAAA AA/A/ FF | BBBB BB/B/ GG | c2 c2 z c/B/ c/B/A/G/ | ^F2 G2 G3 (F | G8) |] %77
V:3
 z8 | z4 G,G,/G,/ G,>^F, | G,2 D,E, F,>_E, D,>C, | C,2 z2 z2 CC | B,B, C>C F,2 F,F, | %5
 D,2 D,2 z G,G,G, | _E,2 E,3 C,C,C, | _A,,4 A,,3 G,, | B,,4 _E,4 | z8 | z8 | z8 | z8 | %13
 z2 B,B, B,2 B,A, | G,3 F, F,F, _E,>D, | C,2 C,D, _E,2 E,F, | G,4 C,2 z2 | z8 | z8 | %19
 z D,D,_E, F,F,/F,/ E,D, | C,C,C,D, _E,E,/E,/ D,C, | B,,B,,B,B, B,B,/B,/ B,B, | %22
 D,D,/D,/ D,_E, F,4 | B,,8 | z8 | z8 | z8 | z8 | z4 z2 ^F,F, | ^F,2 F,2 F,F,F,F, | %30
 G,>G, G,2 z2 E,2 | z2 ^C,2 z2 D,D, | G,,2 B,,2 A,,4 | D,,8 | z8 | z8 | z8 | z8 | z8 | z8 | %40
 z2 G,G, G,G, G,F,/G,/ | _E,E,E,E, E,E, E,D,/E,/ | C,2 C,2 z4 | F,2 F,2 z F,G,A, | %44
 B,2 B,2 z G,G,F, | _E,F,/E,/ D,E,/D,/ C,2 C,2 | F,2 F,G, D,4 | D,4 z4 | z4 z D,^F,D, | %49
 G,G,/G,/ ^F,>E, D,2 D,2 | B,,3 C, D,4 | G,,8 | _E,E,E,E, E,2 E,C, | B,,2 B,,2 z4 | z8 | %55
 z2 C,2 G,2 G,A, | B,A, B,G, A,3 A, | D,2 D,2 D,2 D,C, | B,,2 C,G,, D,3 D, | G,,8 | z8 | %61
 G,F,/_E,/ F,E,/D,/ E,2 D,2 | C,2 D,_E, F,3 F, | B,,2 B,B, B,2 A,G, | G,2 _E,F, G,4 | %65
 C,2 C,C, C,D,_E,F, | G,>G, G,>D, _E,2 z A,, | C,2 A,,B,, C,4 | F,,4 z4 | %69
 z2 B,,B,, B,,B,,/B,,/ G,,G,, | C,2 C,2 z4 | z2 _E,E, E,E,/E,/ C,C, | %72
 F,2 F,2 z F,/_E,/ F,/E,/D,/C,/ | B,,2 B,,2 z G,/F,/ G,/F,/_E,/D,/ | C,C,C,C, C,C,/C,/ A,,A,, | %75
 D,2 B,,C, D,4 | G,,8 |] %77
V:4
 D,2 A,2 D,4 | C,2 D,2 G,,2 D,2 | G,,4 F,,2 G,,2 | C,2 G,2 C,4 | B,,2 C,2 F,,2 F,2 | D,4 G,4 | %6
 _E,4- E,C,C,C, | _A,,4 A,,3 G,, | B,,4 _E,4 | G,,4 ^F,,4 | G,,2 G,2 ^F,4 | G,4 D,2 _E,2 | %12
 F,2 D,2 F,4 | B,,4 B,3 A, | G,4 F,2 _E,D, | C,3 D, _E,3 F, | G,4 C,2 D,2 | _E,2 B,,2 C,2 G,,2 | %18
 D,4 G,4 | D,3 _E, F,2 E,D, | C,3 D, _E,2 D,C, | B,,4 B,,4 | D,2 _E,2 F,4 | B,,8 | %24
 _E,2 B,,2 C,2 D,2 | G,,2 B,,2 C,2 D,2 | G,,8 | G,,4 A,,4 | D,4 ^F,4 | ^F,4 F,4 | G,4 z2 E,2 | %31
 z2 ^C,2 z2 D,2 | G,,2 B,,2 A,,4 | D,,8 | D,8 | D,4 D,2 C,2 | B,,2 _E,2 F,4 | B,,4 B,2 A,2 | %38
 G,2 D,2 _E,2 D,2 | C,2 G,,2 D,4 | G,,8 | _E,4 E,4 | C,4 C,4 | F,4 F,F,G,A, | B,4 G,3 F, | %45
 _E,2 D,2 C,4 | F,3 G, D,4 | D,8 | D,8 | G,2 ^F,E, D,4 | B,,3 C, D,4 | G,,8 | _E,4 E,3 C, | %53
 B,,4 B,,4 | _E,2 F,2 G,4 | C,4 G,3 A, | B,2 G,2 A,4 | D,4 D,3 C, | B,,2 C,G,, D,4 | G,,8 | %60
 G,2 A,2 G,2 A,2 | G,2 F,2 _E,2 D,2 | C,2 D,_E, F,4 | B,,2 B,2 B,2 A,2 | G,2 _E,F, G,4 | %65
 C,4 C,D,_E,F, | G,2 G,>D, _E,2 z A,, | C,2 A,,B,, C,4 | F,,4 F,4 | B,,6 G,,2 | C,4 D,4 | %71
 _E,6 C,2 | F,4 F,4 | B,,4 G,,4 | C,4 C,2 A,,2 | D,2 B,,C, D,4 | G,,8 |] %77

